X: 11519
T: Eddie Moloney's
R: jig
M: 6/8
K: Cmajor
GF|~E3 CEG|cBG BGF|~E3 CEG|cBG Fgf|
e2c dcB|cBG Bcd|~e3 cdc|1 BGE F:|2 BGE F2A||
BGG edc|BGA _B2c|BGG edc|BGE F2A|
BGG edc|BGA _B=Bc|dgf dcB|1 GFE F2A:|2 GFE F||

